X:1
T:Title
%%score { ( 1 3 ) | ( 2 4 ) }
L:1/8
M:4/4
K:Ab
V:1 treble nm="Grand Piano"
V:3 treble 
V:2 bass 
V:4 bass 
V:1
 z4 z2[Q:1/4=100] [CE][CE] | [CE]2 [CA][CA] [Ec]2 [Ec][EA] | [FB]2 [FA][DF] [CE]2 [CE][CE] | %3
 [CE]2 [CA][Ec] e2 dc | B2 [=DB]>[DB] B2 Bc | d2 BA G2 FE | [A,A]-[A,EA]BB c2 cc | %7
 c2 [_Ge][Ge] .[Fe]2 [DFA][=EB] |[M:3/4] c2 c>B [CA]2 |[M:1/4] e>e |[M:4/4] e6 z2 | cBAG A2 EE | %12
 F2 [FA][FB] [A,EA]2 [CEA][Ec] |[M:9/8] E-[Ee][Fe] [A=d] [Ge]2- [Ge]e_d | %14
[M:4/4] c2 [Ec][DB] [CA]2 EE | F2 [FA]>[DF] [CE]2 [CE][CE] | [CA]2 [Ec][_Ge] .[Fe]2 [DFA][=EB] | %17
[M:3/4] c2 c>B [CA]2 |] %18
V:2
 z4 z2 [A,,A,][A,,A,] | [A,,A,]2 [A,,E,][A,,E,] [A,,A,]2 [A,,A,][C,A,] | %2
 [D,A,]2 [D,D][D,A,] [A,,A,]2 [A,,A,][A,,A,] | [A,,A,]2 [A,,A,][A,,A,] [A,CE]2 [G,B,E][A,E] | %4
 [E,G,E]2 [B,,F,]>[B,,A,] [E,G,E]2 [E,G,E][E,A,E] | [E,B,E]2 [E,DE][E,CE] [E,B,E]2 [E,A,D][E,G,D] | %6
 A,,C,[E,G,E][E,G,E] [A,E]2 [A,E][A,E] | [A,E]2 [C,A,][C,A,] z[K:treble] f[K:bass]D,[D,A,] | %8
[M:3/4] [E,A,E]2 [E,A,E]>[E,G,D] [A,,A,]2 |[M:1/4] z2 | %10
[M:4/4] z2 [E,B,][E,C] [E,D]2 [E,CE][E,B,E] | [E,E]-[E,DE][E,CE][E,B,E] [A,CE]2 [C,A,][C,A,] | %12
 [D,A,D]2 [D,D][D,D] C,2 A,,[A,,A,] | %13
[M:9/8] [B,,G,]2 [B,,B,] [B,,B,] [E,B,]2- [E,B,][E,G,E][E,B,E] | %14
[M:4/4] [A,E]2 [A,,A,][A,,E,] [A,,E,]2 [C,A,][C,A,] | %15
 [D,A,D]2 [D,D]>[D,A,] [A,,A,]2 [A,,A,][A,,A,] | %16
 [A,,A,]2 [A,,A,][C,A,] z[K:treble] f[K:bass]D,[D,A,] |[M:3/4] [E,A,E]2 [E,A,E]>[E,A,D] [A,,E,]2 |] %18
V:3
 x8 | x8 | x8 | x8 | x8 | x8 | .C2 z2 z4 | x8 |[M:3/4] x6 |[M:1/4] x2 |[M:4/4] z2 GA B2 ed | x8 | %12
 x8 |[M:9/8] .B3 z3 z3 |[M:4/4] x8 | x8 | x8 |[M:3/4] x6 |] %18
V:4
 x8 | x8 | x8 | x8 | x8 | x8 | x8 | z4 [D,A,]2[K:treble][K:bass] z2 |[M:3/4] x6 |[M:1/4] x2 | %10
[M:4/4] x8 | .A,2 z2 z4 | x8 |[M:9/8] x9 |[M:4/4] x8 | x8 | z4 [D,A,]2[K:treble][K:bass] z2 | %17
[M:3/4] x6 |] %18

